!!!COM: Palestrina, Giovanni Perluigi da
!!!OPR: Missa De beata virgine (1567)
!!!OTL: Benedictus
**kern	**kern	**kern	**kern
*Ibass	*Itenor	*Icalto	*Icant
!Bassus	!Tenor	!Altus	!Cantus
*clefF4	*clefGv2	*clefG2	*clefG2
*k[b-]	*k[b-]	*k[b-]	*k[b-]
*?:X	*?:X	*?:X	*?:X
*M4/2	*M4/2	*M4/2	*M4/2
=1	=1	=1	=1
0r	1F	0r	0f
.	2A	.	.
.	2B-	.	.
=2	=2	=2	=2
0r	4F	1c	0a
.	4G	.	.
.	4A	.	.
.	4B-	.	.
.	2c	2e	.
.	2d	2f	.
=3	=3	=3	=3
0r	2B-	2d	[0g
.	1c	1e	.
.	4B-	4d	.
.	4A	4c	.
=4	=4	=4	=4
1r	2B-	2d	1g]
.	2c	2e	.
1F	2F	2f	2.cc
.	[2f	[2a	.
.	.	.	4b-
=5	=5	=5	=5
2A	2f]	2a]	2cc
2B-	2d	2f	2dd
4F	1f	1a	1cc
4G	.	.	.
4A	.	.	.
4B-	.	.	.
=6	=6	=6	=6
2c	2e	2g	0r
2F	2.d	2.f	.
1A	.	.	.
.	4c	4e	.
.	[2c	4e	.
.	.	8d	.
.	.	8c	.
=7	=7	=7	=7
1G	2c]	1d	1r
.	2B	.	.
2r	[1c	1e	1g
2c	.	.	.
=8	=8	=8	=8
2.A	1c]	2r	0cc
.	.	2c	.
4B-	.	.	.
2c	2r	2e	.
4F	2r	2f	.
4G	.	.	.
=9	=9	=9	=9
4A	2r	4c	0cc
4B-	.	4d	.
1c	2c	4e	.
.	.	4f	.
.	2e	2g	.
2A	2f	2a	.
=10	=10	=10	=10
2B-	2d	2f	[0dd
4G	1g	1b-	.
4A	.	.	.
4B-	.	.	.
4c	.	.	.
[2d	4f	4a	.
.	4e	4g	.
=11	=11	=11	=11
2d]	2f	2a	1dd]
2G	2g	2b-	.
2c	2e	2g	[1cc
4F	[2f	[2a	.
4G	.	.	.
=12	=12	=12	=12
4A	2f]	2a]	0cc]
4B-	.	.	.
1c	4e	4g	.
.	4d	4f	.
.	2e	2g	.
2F	2f	[2cc	.
=13	=13	=13	=13
1G	1d	2cc]	2r
.	.	2b	2dd
2.C	[1c	1cc	2ee
.	.	.	[2gg
4D	.	.	.
=14	=14	=14	=14
2E	0c]	2r	4gg]
.	.	.	4ff
2C	.	2g	4ee
.	.	.	4dd
[1F	.	2a	4cc
.	.	.	4b-
.	.	[2cc	4a
.	.	.	4g
=15	=15	=15	=15
1F]	2r	4cc]	2f
.	.	4b-	.
.	2c	4a	2cc
.	.	4g	.
1r	2d	2.f	2.a
.	[2f	.	.
.	.	4g	4b-
=16	=16	=16	=16
0r	4f]	2a	2cc
.	4e	.	.
.	4d	2.b-	2.dd
.	4c	.	.
.	1B-	.	.
.	.	4a	4cc
.	.	[2g	[2b-
=17	=17	=17	=17
0r	1d	4g]	4b-]
.	.	4f	4a
.	.	2.f	4a
.	.	.	8g
.	.	.	8f
.	1c	.	2g
.	.	4e	.
.	.	2e	[2cc
=18	=18	=18	=18
2r	1G	1d	2cc]
2G	.	.	2b
2A	2r	4c	[1cc
.	.	4d	.
[2c	2c	4e	.
.	.	4f	.
=19	=19	=19	=19
4c]	2e	2g	0cc]
4B-	.	.	.
4A	2.f	2.a	.
4G	.	.	.
2F	.	.	.
.	4e	4g	.
2A	4c	4e	.
.	4d	4f	.
=20	=20	=20	=20
2G	2e	2g	1r
2F	1f	2a	.
2C	.	1g	2r
[2c	2e	.	2g
=21	=21	=21	=21
2c]	1d	1r	2a
2B-	.	.	2b-
2.A	1c	2r	2.cc
.	.	2c	.
4B-	.	.	8b-
.	.	.	8a
=22	=22	=22	=22
2c	1r	2e	2g
2A	.	2f	2a
1G	2r	2.g	2b-
.	2G	.	[2dd
.	.	8f	.
.	.	8e	.
=23	=23	=23	=23
0r	2B-	2d	2dd]
.	2c	2e	4cc
.	.	.	4b-
.	2.d	2f	2.a
.	.	[2a	.
.	8c	.	4b-
.	8B-	.	.
=24	=24	=24	=24
0r	2A	2a]	2cc
.	2B-	4g	2dd
.	.	4f	.
.	2c	2e	4g
.	.	.	4a
.	4G	2g	4b-
.	4A	.	4cc
=25	=25	=25	=25
0r	4B-	2.f	4dd
.	4c	.	4ee
.	4d	.	1ff
.	4e	4g	.
.	2f	4a	.
.	.	4b-	.
.	2c	[2cc	2ee
=26	=26	=26	=26
1r	0g	2cc]	1dd
.	.	4b-	.
.	.	4a	.
2r	.	2.b-	2r
2G	.	.	2dd
.	.	4a	.
=27	=27	=27	=27
2B-	0r	1g	2dd
2c	.	.	2ee
2.d	.	2f	2.ff
.	.	[2a	.
8c	.	.	8ee
8B-	.	.	8dd
=28	=28	=28	=28
2A	1r	2a]	2cc
2B-	.	4g	2dd
.	.	4f	.
2.c	2r	1e	1g
.	2c	.	.
4B-	.	.	.
=29	=29	=29	=29
1A	2e	0r	1cc
.	2f	.	.
2.G	2.g	.	2.b-
4A	8f	.	4cc
.	8e	.	.
=30	=30	=30	=30
4B-	2.d	2r	4dd
4c	.	.	4ee
1d	.	2f	1ff
.	4e	.	.
.	2f	2a	.
2G	2g	2b	4ee
.	.	.	4dd
=31	=31	=31	=31
1c	2e	2.cc	1ee
.	4c	.	.
.	4d	8b-	.
.	.	8a	.
1r	4e	2g	2r
.	4c	.	.
.	2f	2a	2cc
=32	=32	=32	=32
1r	2B-	2b-	2dd
.	2c	2g	2ee
2r	1F	[1a	2.ff
2F	.	.	.
.	.	.	8ee
.	.	.	8dd
=33	=33	=33	=33
2A	1r	2a]	2cc
2B	.	4g	2dd
.	.	4f	.
4c	2r	2e	2g
4B-	.	.	.
4A	2F	[2f	4a
4G	.	.	4b-
=34	=34	=34	=34
2F	2A	2f]	4cc
.	.	.	4a
2G	2B	2d	2.dd
1C	2.c	2.e	.
.	.	.	4cc
.	.	.	[2cc
.	8B-	8d	.
.	8A	8c	.
=35	=35	=35	=35
2r	1G	2d	2cc]
2G	.	2d	2b
2A	2.c	4c	[1cc
.	.	4d	.
[2c	.	4e	.
.	4d	4f	.
=36	=36	=36	=36
4c]	2e	2g	0cc]
4B-	.	.	.
4A	1f	1a	.
4G	.	.	.
2F	.	.	.
2C	2e	2g	.
=37	=37	=37	=37
1F	2f	2.a	2.cc
.	2F	.	.
.	.	4g	4b-
1F	2.A	4f	4a
.	.	4e	4g
.	.	[2f	[2a
.	4B-	.	.
=38	=38	=38	=38
1C	1c	2f]	2a]
.	.	2e	2g
[1C	[1c	[1e	[1g
=39	=39	=39	=39
1C_	1c_	1e_	1g_
1C_	1c_	1e_	1g_
=40	=40	=40	=40
1C]	1c]	1e]	1g]
==	==	==	==
*-	*-	*-	*-
!!!CDT: 1525/^1526/-1594/2/2
!!!OCY: Italia
!!!AGN: Mass (Paraphrase)
!!!AST: renaissance, vocal
!!!ASW: Gregorian Mass
!!!PWK: Masses, Book 2
!!!RNB: Cadence finals: G,D,E,F,C
!!!YOR: Le Opere Complete, v. 4, p. 1
!!!YOO: Rome, Italy: Fratelli Scalera
!!!END: 1992//
!!!EED: John Miller
!!!YEC: Copyright 2000, John Miller
!!!YEN: United States of America
!!!YEM: Rights to all derivative electronic formats reserved.
!!!YEM: Refer to licensing agreement for further details.
!!!YEM: This file must be accompanied by the licensing agreement.
!!!YEM: A copy of the licensing agreement may be found at http://www.music-cog.ohio-state.edu/HumdrumDatabases/Palestrina/license.txt
!!!EMD: converted to Humdrum by Bret Aarden
